img/svgicons/bag.svg

<svg width="24" height="24" viewBox="0 0 24 24" fill="none" xmlns="http://www.w3.org/2000/svg">
<path d="M22.5738 23.255L21.2014 6.27062C21.1743 5.93557 20.8945 5.67742 20.5583 5.67742H16.8737V4.86065C16.8737 2.18047 14.722 0 12.0417 0H11.9566C9.27639 0 7.06727 2.18047 7.06727 4.86065V5.67742H3.44C3.10383 5.67742 2.824 5.93557 2.79691 6.27062L1.42056 23.3029C1.40602 23.4825 1.46727 23.6599 1.58942 23.7923C1.71157 23.9246 1.88362 24 2.06366 24H21.9346C21.9351 24 21.9358 24 21.9363 24C22.2927 24 22.5815 23.7112 22.5815 23.3548C22.5815 23.3209 22.5789 23.2875 22.5738 23.255ZM8.35759 4.86065C8.35759 2.89196 9.98787 1.29032 11.9566 1.29032H12.0417C14.0104 1.29032 15.5834 2.89196 15.5834 4.86065V5.67742H8.35759V4.86065V4.86065Z" fill="#337D5A"/>
</svg>

<svg width="24" height="24" fill="none" xmlns="http://www.w3.org/2000/svg"><path d="M22.574 23.255 21.2 6.271a.645.645 0 0 0-.643-.594h-3.684v-.816C16.874 2.18 14.722 0 12.042 0h-.085c-2.68 0-4.89 2.18-4.89 4.86v.817H3.44a.645.645 0 0 0-.643.594L1.42 23.303a.645.645 0 0 0 .643.697h19.872a.645.645 0 0 0 .638-.745ZM8.358 4.861c0-1.969 1.63-3.57 3.599-3.57h.085c1.968 0 3.541 1.601 3.541 3.57v.816H8.358v-.816Z" fill="#337D5A"/></svg>
